;FLAVOR:Marlin
;TIME:4787
;Filament used: 2.98106m
;Layer height: 0.2
;MINX:58.441
;MINY:96.777
;MINZ:0.2
;MAXX:150.948
;MAXY:123.224
;MAXZ:26.8
;Generated with Cura_SteamEngine 4.13.1
M140 S60
M105
M190 S60
M104 S200
M105
M109 S200
M82 ;absolute extrusion mode
; Ender 3 Custom Start G-code
G92 E0 ; Reset Extruder
G28 ; Home all axes
G1 Z2.0 F3000 ; Move Z Axis up little to prevent scratching of Heat Bed
G1 X0.1 Y20 Z0.3 F5000.0 ; Move to start position
G1 X0.1 Y200.0 Z0.3 F1500.0 E15 ; Draw the first line
G1 X0.4 Y200.0 Z0.3 F5000.0 ; Move to side a little
G1 X0.4 Y20 Z0.3 F1500.0 E30 ; Draw the second line
G92 E0 ; Reset Extruder
G1 Z2.0 F3000 ; Move Z Axis up little to prevent scratching of Heat Bed
G1 X5 Y20 Z0.3 F5000.0 ; Move over to prevent blob squish
G92 E0
G92 E0
G1 F1500 E-6.5
;LAYER_COUNT:134
;LAYER:0
M107
G0 F6000 X64.085 Y98.902 Z0.2
;TYPE:SKIRT
G1 F1500 E0
G1 F1200 X64.906 Y98.415 E0.03175
G1 X65.765 Y97.998 E0.06351
G1 X66.656 Y97.655 E0.09526
G1 X67.573 Y97.387 E0.12704
G1 X68.509 Y97.198 E0.1588
G1 X69.457 Y97.087 E0.19054
G1 X70.411 Y97.055 E0.22229
G1 X71.365 Y97.104 E0.25406
G1 X72.311 Y97.233 E0.28582
G1 X73.243 Y97.44 E0.31757
G1 X73.79 Y97.6 E0.33653
G1 X74.005 Y97.669 E0.34404
G1 X74.901 Y97.999 E0.3758
G1 X75.766 Y98.402 E0.40754
G1 X76.595 Y98.877 E0.43931
G1 X77.381 Y99.419 E0.47107
G1 X78.118 Y100.025 E0.5028
G1 X78.803 Y100.69 E0.53456
G1 X79.491 Y101.488 E0.5696
G1 X79.622 Y101.655 E0.57666
G1 X80.179 Y102.43 E0.60841
G1 X80.669 Y103.249 E0.64015
G1 X81.017 Y103.944 E0.666
G1 X81.137 Y104.206 E0.67558
G1 X81.497 Y105.09 E0.70733
G1 X81.783 Y106.001 E0.73909
G1 X81.997 Y106.964 E0.7719
G1 X82.011 Y107.043 E0.77457
G1 X82.088 Y107.537 E0.7912
G1 X82.156 Y108.051 E0.80844
G1 X82.191 Y108.353 E0.81855
G1 X82.223 Y108.657 E0.82872
G1 X82.283 Y109.58 E0.85948
G1 X82.288 Y109.791 E0.8665
G1 X82.253 Y110.988 E0.90633
G1 X82.226 Y111.319 E0.91738
G1 X82.17 Y111.854 E0.93527
G1 X82.118 Y112.256 E0.94875
G1 X82.074 Y112.561 E0.959
G1 X82.034 Y112.816 E0.96759
G1 X81.847 Y113.752 E0.99933
G1 X81.582 Y114.669 E1.03108
G1 X81.172 Y115.718 E1.06854
G1 X81.071 Y115.943 E1.07675
G1 X80.644 Y116.796 E1.10847
G1 X80.147 Y117.612 E1.14025
G1 X79.613 Y118.345 E1.17041
G1 X79.424 Y118.584 E1.18055
G1 X78.801 Y119.308 E1.21232
G1 X78.119 Y119.976 E1.24407
G1 X77.384 Y120.586 E1.27584
G1 X76.601 Y121.132 E1.30759
G1 X75.775 Y121.61 E1.33933
G1 X74.911 Y122.017 E1.37109
G1 X74.017 Y122.351 E1.40283
G1 X73.097 Y122.609 E1.43461
G1 X72.609 Y122.713 E1.45121
G1 X72.43 Y122.747 E1.45727
G1 X71.486 Y122.885 E1.489
G1 X70.533 Y122.945 E1.52076
G1 X69.578 Y122.924 E1.55253
G1 X68.629 Y122.823 E1.58427
G1 X67.691 Y122.644 E1.61603
G1 X66.772 Y122.386 E1.64778
G1 X65.877 Y122.053 E1.67954
G1 X65.013 Y121.646 E1.71131
G1 X64.187 Y121.167 E1.74307
G1 X63.403 Y120.622 E1.77482
G1 X62.606 Y119.956 E1.80937
G1 X62.429 Y119.794 E1.81735
G1 X61.752 Y119.121 E1.8491
G1 X61.135 Y118.393 E1.88084
G1 X60.58 Y117.616 E1.9126
G1 X59.953 Y116.529 E1.95434
G1 X59.819 Y116.264 E1.96421
G1 X59.612 Y115.834 E1.98009
G1 X59.25 Y114.951 E2.01183
G1 X58.963 Y114.04 E2.04359
G1 X58.757 Y113.131 E2.0746
G1 X58.716 Y112.908 E2.08214
G1 X58.603 Y112.15 E2.10763
G1 X58.544 Y111.637 E2.1248
G1 X58.506 Y111.254 E2.1376
G1 X58.478 Y110.908 E2.14915
G1 X58.441 Y109.953 E2.18094
G1 X58.482 Y109.022 E2.21193
G1 X58.516 Y108.622 E2.22528
G1 X58.548 Y108.3 E2.23604
G1 X58.596 Y107.878 E2.25017
G1 X58.655 Y107.437 E2.26497
G1 X58.686 Y107.235 E2.27177
G1 X58.87 Y106.298 E2.30353
G1 X59.132 Y105.38 E2.33528
G1 X59.476 Y104.473 E2.36754
G1 X59.524 Y104.361 E2.3716
G1 X59.843 Y103.68 E2.39661
G1 X59.955 Y103.46 E2.40482
G1 X60.423 Y102.628 E2.43657
G1 X60.96 Y101.838 E2.46834
G1 X61.56 Y101.096 E2.50008
G1 X62.387 Y100.25 E2.53943
G1 X62.579 Y100.073 E2.54811
G1 X63.308 Y99.456 E2.57988
G1 X64.085 Y98.902 E2.61162
G0 F6000 X64.331 Y99.219
G1 F1200 X65.14 Y98.744 E2.64282
G1 X65.986 Y98.339 E2.67402
G1 X66.863 Y98.008 E2.70519
G1 X67.766 Y97.752 E2.73641
G1 X68.687 Y97.575 E2.7676
G1 X69.619 Y97.476 E2.79878
G1 X70.557 Y97.458 E2.82998
G1 X71.493 Y97.519 E2.86118
G1 X72.42 Y97.66 E2.89236
G1 X73.667 Y97.981 E2.93519
G1 X73.882 Y98.05 E2.9427
G1 X74.762 Y98.375 E2.9739
G1 X75.611 Y98.773 E3.00509
G1 X76.424 Y99.242 E3.03631
G1 X77.193 Y99.778 E3.06748
G1 X77.914 Y100.378 E3.09868
G1 X78.581 Y101.038 E3.12989
G1 X79.176 Y101.735 E3.16037
G1 X79.307 Y101.902 E3.16743
G1 X79.854 Y102.664 E3.19863
G1 X80.334 Y103.47 E3.22983
G1 X80.653 Y104.11 E3.25361
G1 X80.773 Y104.372 E3.2632
G1 X81.127 Y105.241 E3.29441
G1 X81.405 Y106.137 E3.32561
G1 X81.603 Y107.034 E3.35616
G1 X81.617 Y107.113 E3.35883
G1 X81.691 Y107.589 E3.37485
G1 X81.759 Y108.103 E3.3921
G1 X81.794 Y108.394 E3.40185
G1 X81.826 Y108.698 E3.41201
G1 X81.883 Y109.589 E3.44171
G1 X81.888 Y109.8 E3.44873
G1 X81.855 Y110.955 E3.48716
G1 X81.828 Y111.286 E3.49821
G1 X81.773 Y111.803 E3.5155
G1 X81.721 Y112.205 E3.52898
G1 X81.679 Y112.499 E3.53886
G1 X81.639 Y112.754 E3.54744
G1 X81.454 Y113.673 E3.57862
G1 X81.192 Y114.574 E3.60983
G1 X80.807 Y115.554 E3.64485
G1 X80.706 Y115.779 E3.65305
G1 X80.286 Y116.617 E3.68423
G1 X79.796 Y117.417 E3.71543
G1 X79.299 Y118.097 E3.74345
G1 X79.11 Y118.336 E3.75358
G1 X78.498 Y119.046 E3.78476
G1 X77.827 Y119.702 E3.81597
G1 X77.103 Y120.298 E3.84716
G1 X76.33 Y120.83 E3.87837
G1 X75.515 Y121.294 E3.90956
G1 X74.664 Y121.687 E3.94074
G1 X73.782 Y122.006 E3.97193
G1 X72.535 Y122.32 E4.0147
G1 X72.356 Y122.354 E4.02076
G1 X71.428 Y122.489 E4.05196
G1 X70.491 Y122.545 E4.08318
G1 X69.554 Y122.521 E4.11435
G1 X68.622 Y122.418 E4.14554
G1 X67.702 Y122.235 E4.17674
G1 X66.801 Y121.975 E4.20793
G1 X65.925 Y121.638 E4.23914
G1 X65.082 Y121.229 E4.27031
G1 X64.276 Y120.749 E4.30151
G1 X63.514 Y120.202 E4.33271
G1 X62.876 Y119.661 E4.36053
G1 X62.699 Y119.499 E4.36851
G1 X62.035 Y118.837 E4.3997
G1 X61.43 Y118.121 E4.43087
G1 X60.887 Y117.356 E4.46208
G1 X60.31 Y116.349 E4.50068
G1 X60.176 Y116.084 E4.51055
G1 X59.976 Y115.667 E4.52594
G1 X59.62 Y114.799 E4.55714
G1 X59.34 Y113.904 E4.58833
G1 X59.15 Y113.059 E4.61714
G1 X59.109 Y112.836 E4.62468
G1 X59 Y112.104 E4.64929
G1 X58.941 Y111.591 E4.66647
G1 X58.905 Y111.221 E4.67883
G1 X58.877 Y110.875 E4.69038
G1 X58.841 Y109.938 E4.72157
G1 X58.881 Y109.056 E4.75093
G1 X58.915 Y108.656 E4.76428
G1 X58.945 Y108.345 E4.77467
G1 X58.993 Y107.923 E4.7888
G1 X59.05 Y107.497 E4.8031
G1 X59.081 Y107.295 E4.80989
G1 X59.263 Y106.375 E4.84109
G1 X59.522 Y105.474 E4.87227
G1 X59.843 Y104.631 E4.90227
G1 X59.891 Y104.519 E4.90632
G1 X60.199 Y103.861 E4.93049
G1 X60.311 Y103.641 E4.9387
G1 X60.772 Y102.825 E4.96987
G1 X61.301 Y102.05 E5.00108
G1 X61.893 Y101.323 E5.03226
G1 X62.658 Y100.544 E5.06857
G1 X62.85 Y100.367 E5.07726
G1 X63.566 Y99.762 E5.10844
G1 X64.331 Y99.219 E5.13964
G0 F6000 X64.577 Y99.537
G1 F1200 X65.372 Y99.073 E5.17026
G1 X66.205 Y98.68 E5.20089
G1 X67.069 Y98.361 E5.23152
G1 X67.957 Y98.119 E5.26213
G1 X68.863 Y97.954 E5.29276
G1 X69.779 Y97.868 E5.32336
G1 X70.7 Y97.862 E5.354
G1 X71.617 Y97.936 E5.3846
G1 X72.525 Y98.09 E5.41523
G1 X73.545 Y98.362 E5.45034
G1 X73.76 Y98.431 E5.45785
G1 X74.624 Y98.75 E5.48848
G1 X75.456 Y99.143 E5.51909
G1 X76.252 Y99.607 E5.54973
G1 X77.004 Y100.138 E5.58035
G1 X77.707 Y100.732 E5.61096
G1 X78.356 Y101.385 E5.64158
G1 X78.861 Y101.982 E5.66759
G1 X78.992 Y102.149 E5.67465
G1 X79.528 Y102.897 E5.70525
G1 X79.998 Y103.689 E5.73589
G1 X80.289 Y104.277 E5.75771
G1 X80.409 Y104.539 E5.76729
G1 X80.756 Y105.392 E5.79792
G1 X81.027 Y106.272 E5.82855
G1 X81.209 Y107.103 E5.85684
G1 X81.223 Y107.182 E5.85951
G1 X81.294 Y107.642 E5.87499
G1 X81.362 Y108.156 E5.89223
G1 X81.396 Y108.436 E5.90162
G1 X81.428 Y108.74 E5.91178
G1 X81.483 Y109.599 E5.94041
G1 X81.488 Y109.81 E5.94743
G1 X81.456 Y110.923 E5.98446
G1 X81.429 Y111.254 E5.99551
G1 X81.376 Y111.752 E6.01217
G1 X81.324 Y112.154 E6.02565
G1 X81.284 Y112.437 E6.03516
G1 X81.244 Y112.692 E6.04374
G1 X81.062 Y113.594 E6.07435
G1 X80.802 Y114.477 E6.10496
G1 X80.442 Y115.39 E6.1376
G1 X80.341 Y115.615 E6.14581
G1 X79.928 Y116.438 E6.17643
G1 X79.445 Y117.221 E6.20703
G1 X78.985 Y117.849 E6.23292
G1 X78.796 Y118.088 E6.24306
G1 X78.195 Y118.785 E6.27367
G1 X77.534 Y119.426 E6.30429
G1 X76.821 Y120.009 E6.33492
G1 X76.06 Y120.527 E6.36554
G1 X75.257 Y120.977 E6.39616
G1 X74.418 Y121.355 E6.42677
G1 X73.549 Y121.66 E6.4574
G1 X72.46 Y121.927 E6.49469
G1 X72.281 Y121.961 E6.50075
G1 X71.37 Y122.093 E6.53137
G1 X70.451 Y122.146 E6.56198
G1 X69.531 Y122.119 E6.5926
G1 X68.616 Y122.012 E6.62324
G1 X67.714 Y121.826 E6.65387
G1 X66.832 Y121.563 E6.68448
G1 X65.976 Y121.224 E6.7151
G1 X65.153 Y120.812 E6.74571
G1 X64.368 Y120.33 E6.77635
G1 X63.629 Y119.782 E6.80695
G1 X63.146 Y119.366 E6.82815
G1 X62.969 Y119.204 E6.83613
G1 X62.318 Y118.554 E6.86673
G1 X61.725 Y117.849 E6.89737
G1 X61.196 Y117.096 E6.92798
G1 X60.667 Y116.168 E6.96351
G1 X60.533 Y115.903 E6.97338
G1 X60.339 Y115.5 E6.98826
G1 X59.991 Y114.647 E7.0189
G1 X59.718 Y113.768 E7.04951
G1 X59.544 Y112.987 E7.07613
G1 X59.503 Y112.764 E7.08367
G1 X59.397 Y112.058 E7.10741
G1 X59.338 Y111.545 E7.12459
G1 X59.304 Y111.189 E7.13648
G1 X59.276 Y110.843 E7.14803
G1 X59.241 Y109.923 E7.17865
G1 X59.279 Y109.09 E7.20638
G1 X59.313 Y108.69 E7.21974
G1 X59.343 Y108.39 E7.22976
G1 X59.391 Y107.968 E7.24389
G1 X59.446 Y107.558 E7.25765
G1 X59.477 Y107.356 E7.26445
G1 X59.656 Y106.453 E7.29507
G1 X59.912 Y105.569 E7.32568
G1 X60.211 Y104.788 E7.35349
G1 X60.259 Y104.676 E7.35754
G1 X60.556 Y104.043 E7.3808
G1 X60.668 Y103.823 E7.38901
G1 X61.121 Y103.021 E7.41965
G1 X61.641 Y102.262 E7.45025
G1 X62.226 Y101.551 E7.48087
G1 X62.929 Y100.838 E7.51417
G1 X63.121 Y100.661 E7.52286
G1 X63.825 Y100.067 E7.55349
G1 X64.577 Y99.537 E7.58409
G0 F6000 X64.822 Y99.855
G1 F1200 X65.604 Y99.403 E7.61414
G1 X66.423 Y99.023 E7.64416
G1 X67.273 Y98.716 E7.67422
G1 X68.146 Y98.486 E7.70425
G1 X69.036 Y98.334 E7.73428
G1 X69.937 Y98.262 E7.76434
G1 X70.84 Y98.269 E7.79438
G1 X71.739 Y98.356 E7.82442
G1 X72.626 Y98.522 E7.85443
G1 X73.423 Y98.743 E7.88194
G1 X73.638 Y98.812 E7.88945
G1 X74.485 Y99.126 E7.9195
G1 X75.301 Y99.513 E7.94953
G1 X76.079 Y99.971 E7.97956
G1 X76.814 Y100.496 E8.0096
G1 X77.499 Y101.084 E8.03963
G1 X78.13 Y101.731 E8.06969
G1 X78.546 Y102.229 E8.09127
G1 X78.677 Y102.396 E8.09833
G1 X79.203 Y103.13 E8.12836
G1 X79.661 Y103.908 E8.15839
G1 X79.926 Y104.444 E8.17828
G1 X80.046 Y104.706 E8.18786
G1 X80.385 Y105.542 E8.21787
G1 X80.649 Y106.406 E8.24792
G1 X80.816 Y107.173 E8.27402
G1 X80.83 Y107.252 E8.27669
G1 X80.898 Y107.694 E8.29157
G1 X80.966 Y108.208 E8.30881
G1 X80.998 Y108.478 E8.31785
G1 X81.03 Y108.782 E8.32802
G1 X81.083 Y109.608 E8.35555
G1 X81.088 Y109.819 E8.36257
G1 X81.057 Y110.89 E8.39821
G1 X81.03 Y111.221 E8.40925
G1 X80.98 Y111.701 E8.4253
G1 X80.928 Y112.103 E8.43879
G1 X80.889 Y112.375 E8.44793
G1 X80.849 Y112.63 E8.45651
G1 X80.669 Y113.515 E8.48655
G1 X80.413 Y114.381 E8.51658
G1 X80.077 Y115.226 E8.54683
G1 X79.976 Y115.451 E8.55503
G1 X79.571 Y116.258 E8.58506
G1 X79.095 Y117.025 E8.61509
G1 X78.672 Y117.601 E8.63886
G1 X78.483 Y117.84 E8.64899
G1 X77.892 Y118.523 E8.67903
G1 X77.243 Y119.151 E8.70907
G1 X76.541 Y119.719 E8.7391
G1 X75.791 Y120.222 E8.76914
G1 X75 Y120.658 E8.79918
G1 X74.173 Y121.022 E8.82923
G1 X73.318 Y121.311 E8.85925
G1 X72.385 Y121.534 E8.89116
G1 X72.206 Y121.568 E8.89722
G1 X71.313 Y121.697 E8.92722
G1 X70.411 Y121.746 E8.95727
G1 X69.508 Y121.716 E8.98732
G1 X68.612 Y121.606 E9.01734
G1 X67.729 Y121.417 E9.04738
G1 X66.866 Y121.15 E9.07742
G1 X66.03 Y120.809 E9.10745
G1 X65.227 Y120.394 E9.13752
G1 X64.465 Y119.911 E9.16752
G1 X63.416 Y119.071 E9.21222
G1 X63.239 Y118.909 E9.2202
G1 X62.601 Y118.271 E9.25021
G1 X62.021 Y117.578 E9.28027
G1 X61.505 Y116.837 E9.3103
G1 X61.024 Y115.988 E9.34276
G1 X60.89 Y115.723 E9.35263
G1 X60.702 Y115.333 E9.36703
G1 X60.362 Y114.496 E9.39708
G1 X60.096 Y113.633 E9.42712
G1 X59.937 Y112.914 E9.45161
G1 X59.896 Y112.691 E9.45915
G1 X59.795 Y112.012 E9.48198
G1 X59.736 Y111.499 E9.49916
G1 X59.702 Y111.157 E9.51059
G1 X59.674 Y110.811 E9.52213
G1 X59.641 Y109.908 E9.55219
G1 X59.678 Y109.124 E9.57829
G1 X59.712 Y108.724 E9.59164
G1 X59.74 Y108.435 E9.6013
G1 X59.788 Y108.013 E9.61543
G1 X59.841 Y107.619 E9.62865
G1 X59.872 Y107.417 E9.63545
G1 X60.048 Y106.531 E9.66549
G1 X60.302 Y105.664 E9.69554
G1 X60.579 Y104.946 E9.72114
G1 X60.627 Y104.834 E9.72519
G1 X60.912 Y104.224 E9.74758
G1 X61.024 Y104.004 E9.75579
G1 X61.469 Y103.219 E9.78581
G1 X61.982 Y102.475 E9.81587
G1 X62.558 Y101.78 E9.84589
G1 X63.2 Y101.133 E9.8762
G1 X63.392 Y100.956 E9.88489
G1 X64.083 Y100.373 E9.91496
G1 X64.822 Y99.855 E9.94497
G1 F1500 E3.44497
;MESH:Makers Mark Stamp v1.stl
G0 F6000 X69.771 Y108.026
G0 X70.369 Y108.814
G0 X70.406 Y111.08
G1 F1500 E9.94497
G0 F6000 X70.367 Y111.346
;TYPE:WALL-OUTER
G1 F1200 X70.27 Y111.257 E9.94935
G1 X70.139 Y110.988 E9.9593
G1 X70.112 Y110.82 E9.96496
G1 X70.031 Y110.001 E9.99234
G1 X70.111 Y109.193 E10.01934
G1 X70.139 Y109.013 E10.0254
G1 X70.271 Y108.743 E10.0354
G1 X70.365 Y108.656 E10.03966
G1 X70.493 Y108.796 E10.04597
G1 X70.588 Y109.008 E10.05369
G1 X70.633 Y109.316 E10.06405
G1 X70.687 Y109.776 E10.07945
G1 X70.688 Y110.216 E10.09409
G1 X70.634 Y110.68 E10.10962
G1 X70.589 Y110.994 E10.12017
G1 X70.496 Y111.2 E10.12769
G1 X70.367 Y111.346 E10.13417
G0 F6000 X70.353 Y110.8
;TYPE:SKIN
G1 F1200 X70.355 Y110.519 E10.14092
G1 X70.377 Y109.409 E10.1676
G0 F6000 X70.437 Y109.187
G1 F1200 X70.309 Y109.059 E10.17061
;MESH:NONMESH
G0 F300 X70.309 Y109.059 Z0.4
G0 F6000 X70.334 Y109.071
G0 X70.354 Y111.104
G0 X70.37 Y112.013
;TIME_ELAPSED:21.321067
;LAYER:1
M106 S85
;TYPE:WALL-INNER
;MESH:Makers Mark Stamp v1.stl
G1 F600 X70.3 Y111.873 E10.17582
G1 X70.133 Y111.076 E10.2029
G1 X70.118 Y110.968 E10.20653
G1 X70.065 Y109.999 E10.23881
G1 X70.114 Y109.033 E10.27098
G1 X70.136 Y108.903 E10.27536
G1 X70.302 Y108.12 E10.30198
G1 X70.369 Y107.987 E10.30694
G1 X70.47 Y108.237 E10.31102
G1 X70.652 Y108.885 E10.32714
G1 X70.73 Y109.351 E10.34286
G1 X70.742 Y109.451 E10.34621
G1 X70.77 Y109.927 E10.36207
G1 X70.771 Y110.039 E10.36579
G1 X70.746 Y110.494 E10.38095
G1 X70.735 Y110.603 E10.38459
G1 X70.651 Y111.108 E10.40162
G1 X70.636 Y111.176 E10.40394
G1 X70.48 Y111.738 E10.42334
G1 X70.37 Y112.013 E10.42822
G0 F7500 X70.413 Y112.579
;TYPE:WALL-OUTER
G1 F600 X70.33 Y112.581 E10.43098
G1 X70.239 Y112.528 E10.43448
G1 X70.083 Y112.334 E10.44276
G1 X69.918 Y112.005 E10.455
G1 X69.741 Y111.158 E10.48378
G1 X69.72 Y111.015 E10.48859
G1 X69.665 Y110.001 E10.52236
G1 X69.717 Y108.983 E10.55627
G1 X69.741 Y108.838 E10.56116
G1 X69.922 Y107.987 E10.59009
G1 X70.082 Y107.666 E10.60202
G1 X70.236 Y107.477 E10.61013
G1 X70.344 Y107.418 E10.61422
G1 X70.414 Y107.424 E10.61656
G1 X70.525 Y107.506 E10.62115
G1 X70.718 Y107.782 E10.63235
G1 X70.849 Y108.107 E10.64401
G1 X71.002 Y108.649 E10.66274
G1 X71.041 Y108.791 E10.66764
G1 X71.127 Y109.304 E10.68494
G1 X71.14 Y109.415 E10.68865
G1 X71.17 Y109.923 E10.70558
G1 X71.171 Y110.035 E10.7093
G1 X71.144 Y110.535 E10.72596
G1 X71.131 Y110.66 E10.73014
G1 X71.044 Y111.185 E10.74784
G1 X71.027 Y111.262 E10.75046
G1 X70.859 Y111.868 E10.77138
G1 X70.719 Y112.217 E10.78388
G1 X70.524 Y112.497 E10.79523
G1 X70.413 Y112.579 E10.79982
G0 F7500 X70.376 Y112.267
G0 X70.284 Y111.259
G0 X70.334 Y111.25
;TYPE:SKIN
G1 F600 X70.49 Y111.094 E10.80716
G0 F7500 X70.267 Y110.752
G1 F600 X70.589 Y110.43 E10.82231
G0 F7500 X70.237 Y110.216
